packages/rn-bitcoin-icons/svg/outline/edit.svg

<svg width="24" height="24" viewBox="0 0 24 24" fill="none" xmlns="http://www.w3.org/2000/svg">
<path d="M4.5 17.2071V19C4.5 19.2761 4.72386 19.5 5 19.5H6.79289C6.9255 19.5 7.05268 19.4473 7.14645 19.3536L15.6452 10.8548L13.1452 8.35485L4.64645 16.8536C4.55268 16.9473 4.5 17.0745 4.5 17.2071Z" stroke="black"/>
<path d="M15.0897 6.4103L17.5897 8.9103L18.7929 7.70711C19.1834 7.31658 19.1834 6.68342 18.7929 6.2929L17.7071 5.20711C17.3166 4.81658 16.6834 4.81658 16.2929 5.20711L15.0897 6.4103Z" stroke="black"/>
</svg>

<svg xmlns="http://www.w3.org/2000/svg" fill="none" viewBox="0 0 24 24" stroke="currentColor">
  <path d="M4.5 17.207V19a.5.5 0 00.5.5h1.793a.5.5 0 00.353-.146l8.5-8.5-2.5-2.5-8.5 8.5a.5.5 0 00-.146.353zM15.09 6.41l2.5 2.5 1.203-1.203a1 1 0 000-1.414l-1.086-1.086a1 1 0 00-1.414 0L15.09 6.41z"/>
</svg>
